build/img/icons/location.svg

<svg width="56" height="56" viewBox="0 0 56 56" fill="none" xmlns="http://www.w3.org/2000/svg">
<path d="M32.4945 39.058L40.8611 25.6048C40.8884 25.5613 40.9113 25.5156 40.9291 25.4681C42.3739 23.1121 43.1367 20.4207 43.1367 17.6729C43.1367 9.42962 36.4303 2.72314 28.1871 2.72314C19.9439 2.72314 13.2369 9.42962 13.2369 17.6729C13.2369 20.4213 14.0008 23.1138 15.4467 25.4715C15.4634 25.5128 15.483 25.5529 15.5064 25.592L23.5727 39.0915C17.3111 39.9765 13.1934 42.5513 13.1934 45.6746C13.1934 49.5446 19.7697 52.5753 28.1648 52.5753C36.5598 52.5753 43.1361 49.544 43.1361 45.6746C43.1367 42.5368 38.827 39.9045 32.4945 39.058ZM16.9495 24.7176C15.6158 22.5948 14.911 20.159 14.911 17.6729C14.911 10.3526 20.8663 4.39725 28.1871 4.39725C35.5073 4.39725 41.4626 10.3526 41.4626 17.6729C41.4626 20.1601 40.7578 22.5959 39.4247 24.7176C39.3968 24.7622 39.3739 24.8085 39.3555 24.8565L30.5163 39.068C30.3835 39.2717 30.3573 39.318 30.1949 39.5848L27.9627 43.174L17.0242 24.8682C17.0047 24.8163 16.9796 24.7656 16.9495 24.7176ZM28.1653 50.9012C20.3289 50.9012 14.868 48.1461 14.868 45.6746C14.868 43.4313 18.9807 41.3175 24.5124 40.6629L27.2301 45.2114C27.3802 45.462 27.6491 45.6166 27.941 45.6188C27.9432 45.6188 27.946 45.6188 27.9482 45.6188C28.2373 45.6188 28.5063 45.4692 28.6592 45.2237L31.5163 40.63C37.1362 41.2388 41.4621 43.4062 41.4621 45.6746C41.4626 48.1467 36.0017 50.9012 28.1653 50.9012Z" fill="#27AE60"/>
<path d="M33.5991 17.6729C33.5991 14.6757 31.1605 12.2371 28.1633 12.2371C25.1661 12.2371 22.7275 14.6757 22.7275 17.6729C22.7275 20.6701 25.1661 23.1087 28.1633 23.1087C31.1605 23.1087 33.5991 20.6701 33.5991 17.6729ZM24.4016 17.6729C24.4016 15.5987 26.0891 13.9112 28.1633 13.9112C30.2375 13.9112 31.925 15.5987 31.925 17.6729C31.925 19.7471 30.2381 21.4346 28.1633 21.4346C26.0886 21.4346 24.4016 19.7471 24.4016 17.6729Z" fill="#27AE60"/>
</svg>

<svg viewBox="0 0 56 56" fill="none" xmlns="http://www.w3.org/2000/svg"><path d="M32.495 39.058l8.366-13.453a.757.757 0 00.068-.137 14.897 14.897 0 002.208-7.795c0-8.243-6.707-14.95-14.95-14.95-8.243 0-14.95 6.707-14.95 14.95 0 2.748.764 5.44 2.21 7.799a.865.865 0 00.06.12l8.066 13.5c-6.262.885-10.38 3.46-10.38 6.583 0 3.87 6.577 6.9 14.972 6.9s14.971-3.031 14.971-6.9c0-3.138-4.309-5.77-10.642-6.617zM16.95 24.718a13.23 13.23 0 01-2.039-7.045c0-7.32 5.955-13.276 13.276-13.276 7.32 0 13.276 5.956 13.276 13.276a13.23 13.23 0 01-2.038 7.045.803.803 0 00-.07.139l-8.839 14.211c-.132.204-.159.25-.321.517l-2.232 3.589-10.939-18.306a.841.841 0 00-.075-.15zM28.165 50.9c-7.836 0-13.297-2.755-13.297-5.226 0-2.244 4.113-4.357 9.644-5.012l2.718 4.548c.15.251.42.406.711.408h.007c.29 0 .558-.15.711-.395l2.857-4.594c5.62.609 9.946 2.776 9.946 5.045 0 2.472-5.46 5.226-13.297 5.226z" fill="#27AE60"/><path d="M33.6 17.673a5.442 5.442 0 00-5.437-5.436 5.442 5.442 0 00-5.436 5.436 5.442 5.442 0 005.436 5.436 5.442 5.442 0 005.436-5.436zm-9.198 0a3.766 3.766 0 013.761-3.762 3.766 3.766 0 013.762 3.762 3.766 3.766 0 01-3.762 3.762 3.766 3.766 0 01-3.761-3.762z" fill="#27AE60"/></svg>
